X: 631
T: Hamilton County Breakdown
B: jims roots
M:4/4
R: reel
Q: 1/4=100
K:G
V:1 
dBAG FDEF | "G"GEDC B,G,B,A, |[1 G,2[Bg][Bg] [c2g][^c2g] :|[2 G,B,DF GED_E ||
|:[P:B Part]"C"=EE[Ec][Ec] E[Ec]dc | ecdd cdcA | "G"BB[Bg][Bg] Bgag | bgag bage |
"D"fafe dBA^c | dA=cB AGEF | "G"GEDC B,G,B,A, |[1 G,A,B,D GDB,D :|[2 G,2|]
V:Bg 
 [c2g][^c2g] |:"G"[d4g] dedc | BdBA GBAG | "F"=F2FG FED2 | "D"J[D8D] | A2Ac BAB^c |
% abcbook-tune_id 6298c25d255c6426aebda152


% abcbook-boost 0
% abcbook-tablature 
% abcbook-transpose 
% abcbook-lastupdated 1654178398580
% abcbook-soundfonts 
% abcbook-repeats 1


